X:273
T: Der Botenbube
N: A0314
O: Europa, Mitteleuropa, Deutschland
N: Hainhofer, Lautenbuch II. 1603. Bl. 28.
R: Romanze, Ballade, Lied
M: 4/2
L: 1/4
K: G
G2G2G2D2 | GAG2F4
A2_B2c2B2 | A2A2G4
G2G2G2D2 | GAG2F4
A2_B2c2B2 | A2A2G4
A2A2A2G2 | A2_B2c4
A2A2A2G2 | A2_B2c4
d4c2B2 | A4G4 | =FGF2G2F2 | E4D2
dD | _Bcd2c2B2 | A2A2G4

